public/assets/goal2.svg

<svg width="82" height="78" viewBox="0 0 82 78" fill="none" xmlns="http://www.w3.org/2000/svg">
<g clip-path="url(#clip0_37_80)">
<path d="M77.9369 18.3655H3.2408C1.4628 18.3655 0.0244141 19.7959 0.0244141 21.5203V74.2703C0.0244141 76.0143 1.4628 77.4252 3.2408 77.4252H77.9369C79.7149 77.4252 81.1532 76.0143 81.1532 74.2703V21.5203C81.1532 19.7959 79.7149 18.3655 77.9369 18.3655ZM11.6913 69.058C11.6913 70.704 10.3328 72.0365 8.65472 72.0365C6.9766 72.0365 5.61813 70.704 5.61813 69.058V26.7522C5.61813 25.1062 6.9766 23.7737 8.65472 23.7737C10.3328 23.7737 11.6913 25.1062 11.6913 26.7522V69.058ZM22.3393 69.058C22.3393 70.704 20.9809 72.0365 19.3027 72.0365C17.6246 72.0365 16.2662 70.704 16.2662 69.058V26.7522C16.2662 25.1062 17.6246 23.7737 19.3027 23.7737C20.9809 23.7737 22.3393 25.1062 22.3393 26.7522V69.058ZM32.9874 69.058C32.9874 70.704 31.6289 72.0365 29.9508 72.0365C28.2727 72.0365 26.9142 70.704 26.9142 69.058V26.7522C26.9142 25.1062 28.2727 23.7737 29.9508 23.7737C31.6289 23.7737 32.9874 25.1062 32.9874 26.7522V69.058ZM43.6354 69.058C43.6354 70.704 42.2769 72.0365 40.5988 72.0365C38.9207 72.0365 37.5622 70.704 37.5622 69.058V26.7522C37.5622 25.1062 38.9207 23.7737 40.5988 23.7737C42.2769 23.7737 43.6354 25.1062 43.6354 26.7522V69.058ZM54.2834 69.058C54.2834 70.704 52.925 72.0365 51.2468 72.0365C49.5687 72.0365 48.2103 70.704 48.2103 69.058V26.7522C48.2103 25.1062 49.5687 23.7737 51.2468 23.7737C52.925 23.7737 54.2834 25.1062 54.2834 26.7522V69.058ZM64.9315 69.058C64.9315 70.704 63.573 72.0365 61.8949 72.0365C60.2168 72.0365 58.8583 70.704 58.8583 69.058V26.7522C58.8583 25.1062 60.2168 23.7737 61.8949 23.7737C63.573 23.7737 64.9315 25.1062 64.9315 26.7522V69.058ZM75.5595 69.058C75.5595 70.704 74.201 72.0365 72.5229 72.0365C70.8448 72.0365 69.4864 70.704 69.4864 69.058V26.7522C69.4864 25.1062 70.8448 23.7737 72.5229 23.7737C74.201 23.7737 75.5595 25.1062 75.5595 26.7522V69.058Z" fill="#18808A"/>
</g>
<defs>
<clipPath id="clip0_37_80">
<rect width="81.1288" height="76.95" fill="white" transform="translate(0.0244141 0.475098)"/>
</clipPath>
</defs>
</svg>

<svg width="82" height="78" fill="none" xmlns="http://www.w3.org/2000/svg"><g clip-path="url(#a)"><path d="M77.937 18.366H3.24c-1.778 0-3.217 1.43-3.217 3.154v52.75c0 1.744 1.439 3.155 3.217 3.155h74.696c1.778 0 3.216-1.41 3.216-3.155V21.52c0-1.724-1.438-3.154-3.216-3.154zM11.69 69.058c0 1.646-1.358 2.978-3.036 2.978s-3.037-1.332-3.037-2.978V26.752c0-1.646 1.359-2.978 3.037-2.978s3.036 1.332 3.036 2.978v42.306zm10.648 0c0 1.646-1.358 2.978-3.036 2.978s-3.037-1.332-3.037-2.978V26.752c0-1.646 1.359-2.978 3.037-2.978s3.036 1.332 3.036 2.978v42.306zm10.648 0c0 1.646-1.358 2.978-3.036 2.978s-3.037-1.332-3.037-2.978V26.752c0-1.646 1.359-2.978 3.037-2.978s3.036 1.332 3.036 2.978v42.306zm10.648 0c0 1.646-1.358 2.978-3.036 2.978s-3.037-1.332-3.037-2.978V26.752c0-1.646 1.359-2.978 3.037-2.978s3.036 1.332 3.036 2.978v42.306zm10.648 0c0 1.646-1.358 2.978-3.036 2.978s-3.037-1.332-3.037-2.978V26.752c0-1.646 1.359-2.978 3.037-2.978s3.036 1.332 3.036 2.978v42.306zm10.648 0c0 1.646-1.358 2.978-3.036 2.978s-3.037-1.332-3.037-2.978V26.752c0-1.646 1.359-2.978 3.037-2.978s3.036 1.332 3.036 2.978v42.306zm10.629 0c0 1.646-1.359 2.978-3.037 2.978s-3.037-1.332-3.037-2.978V26.752c0-1.646 1.359-2.978 3.037-2.978s3.037 1.332 3.037 2.978v42.306z" fill="#18808A"/></g><defs><clipPath id="a"><path fill="#fff" transform="translate(.024 .475)" d="M0 0h81.129v76.95H0z"/></clipPath></defs></svg>
